Adwaita++-Light/panel/16/guitarix-tray.svg

<svg height="16" width="16" xmlns="http://www.w3.org/2000/svg">
  <g fill="#444">
    <path d="m1.7011719 5c-.3878001 0-.7011719.343455-.7011719.7695312v8.4609378c0 .426076.3133718.769531.7011719.769531h12.5976561c.3878 0 .701172-.343455.701172-.769531v-8.4609378c0-.4260764-.313372-.7695312-.701172-.7695312zm3.2988281 2a3 3 0 0 1 3 3 3 3 0 0 1 3-3 3 3 0 0 1 3 3 3 3 0 0 1 -3 3 3 3 0 0 1 -3-3 3 3 0 0 1 -3 3 3 3 0 0 1 -3-3 3 3 0 0 1 3-3zm0 2a1 1 0 0 0 -1 1 1 1 0 0 0 1 1 1 1 0 0 0 1-1 1 1 0 0 0 -1-1zm6 0a1 1 0 0 0 -1 1 1 1 0 0 0 1 1 1 1 0 0 0 1-1 1 1 0 0 0 -1-1z"/>
    <path d="m1.7011719 1c-.3878001 0-.7011719.2558208-.7011719.5722656v2.8554688c0 .3164449.3133718.5722656.7011719.5722656h12.5976561c.3878 0 .701172-.2558208.701172-.5722656v-2.8554688c0-.3164448-.313372-.5722656-.701172-.5722656zm1.0449219 1h10.5078122c.413601 0 .746094.201872.746094.4511719v1.0976562c0 .2492999-.332493.4511719-.746094.4511719h-10.5078122c-.4136009 0-.7460938-.201872-.7460938-.4511719v-1.0976562c0-.2493.332493-.4511719.7460938-.4511719zm.6542968.5996094a.4.4 0 0 0 -.4003906.4003906.4.4 0 0 0 .4003906.4003906.4.4 0 0 0 .4003906-.4003906.4.4 0 0 0 -.4003906-.4003906zm1.5996094 0a.4.4 0 0 0 -.4003906.4003906.4.4 0 0 0 .4003906.4003906.4.4 0 0 0 .4003906-.4003906.4.4 0 0 0 -.4003906-.4003906zm1.4003906 0a.4.4 0 0 0 -.4003906.4003906.4.4 0 0 0 .4003906.4003906.4.4 0 0 0 .4003906-.4003906.4.4 0 0 0 -.4003906-.4003906zm5.7988284 0v.8007812h.800781v-.8007812z"/>
  </g>
</svg>

<svg xmlns="http://www.w3.org/2000/svg" width="16" height="16" version="1.1">
 <defs>
  <style id="current-color-scheme" type="text/css">
   .ColorScheme-Text { color:#444444; } .ColorScheme-Highlight { color:#4285f4; }
  </style>
 </defs>
 <path style="fill:currentColor" class="ColorScheme-Text" d="M 1.7011719 5 C 1.3133718 5 1 5.343455 1 5.7695312 L 1 14.230469 C 1 14.656545 1.3133718 15 1.7011719 15 L 14.298828 15 C 14.686628 15 15 14.656545 15 14.230469 L 15 5.7695312 C 15 5.3434548 14.686628 5 14.298828 5 L 1.7011719 5 z M 5 7 A 3 3 0 0 1 8 10 A 3 3 0 0 1 11 7 A 3 3 0 0 1 14 10 A 3 3 0 0 1 11 13 A 3 3 0 0 1 8 10 A 3 3 0 0 1 5 13 A 3 3 0 0 1 2 10 A 3 3 0 0 1 5 7 z M 5 9 A 1 1 0 0 0 4 10 A 1 1 0 0 0 5 11 A 1 1 0 0 0 6 10 A 1 1 0 0 0 5 9 z M 11 9 A 1 1 0 0 0 10 10 A 1 1 0 0 0 11 11 A 1 1 0 0 0 12 10 A 1 1 0 0 0 11 9 z"/>
 <path style="fill:currentColor" class="ColorScheme-Text" d="M 1.7011719 1 C 1.3133718 1 1 1.2558208 1 1.5722656 L 1 4.4277344 C 1 4.7441793 1.3133718 5 1.7011719 5 L 14.298828 5 C 14.686628 5 15 4.7441792 15 4.4277344 L 15 1.5722656 C 15 1.2558208 14.686628 1 14.298828 1 L 1.7011719 1 z M 2.7460938 2 L 13.253906 2 C 13.667507 2 14 2.201872 14 2.4511719 L 14 3.5488281 C 14 3.798128 13.667507 4 13.253906 4 L 2.7460938 4 C 2.3324929 4 2 3.798128 2 3.5488281 L 2 2.4511719 C 2 2.2018719 2.332493 2 2.7460938 2 z M 3.4003906 2.5996094 A 0.4 0.4 0 0 0 3 3 A 0.4 0.4 0 0 0 3.4003906 3.4003906 A 0.4 0.4 0 0 0 3.8007812 3 A 0.4 0.4 0 0 0 3.4003906 2.5996094 z M 5 2.5996094 A 0.4 0.4 0 0 0 4.5996094 3 A 0.4 0.4 0 0 0 5 3.4003906 A 0.4 0.4 0 0 0 5.4003906 3 A 0.4 0.4 0 0 0 5 2.5996094 z M 6.4003906 2.5996094 A 0.4 0.4 0 0 0 6 3 A 0.4 0.4 0 0 0 6.4003906 3.4003906 A 0.4 0.4 0 0 0 6.8007812 3 A 0.4 0.4 0 0 0 6.4003906 2.5996094 z M 12.199219 2.5996094 L 12.199219 3.4003906 L 13 3.4003906 L 13 2.5996094 L 12.199219 2.5996094 z"/>
</svg>
